icons/odontology_implant.svg

<svg width="48" height="48" viewBox="0 0 48 48" fill="none" xmlns="http://www.w3.org/2000/svg">
<path fill-rule="evenodd" clip-rule="evenodd" d="M7.5897 10.1647C11.9517 5.35267 17.3205 4.32394 23.5 9.13368C23.5 9.13368 33.2164 2.43189 39.5776 9.13373C43.6985 13.4753 41.7176 18.0109 39.8111 22.3761C38.7746 24.7492 37.7601 27.072 37.7601 29.2857C37.2785 30.1321 33.1091 30.5819 28.0983 30.7189L15.4476 35.2732L15.0482 33.5426L22.7962 30.7534C20.9309 30.7298 19.0818 30.6704 17.3763 30.5789L14.5953 31.58L14.5653 31.4497C14.4805 31.0822 14.5024 30.7196 14.6081 30.3906C11.5814 30.134 9.43768 29.7555 9.22545 29.2857C9.22545 26.7224 8.36961 24.0539 7.53963 21.466C6.17245 17.2031 4.87545 13.159 7.5897 10.1647ZM22.2716 10.712C22.3269 10.755 22.384 10.7948 22.4426 10.8313L28.9017 15.5439C29.3479 15.8695 29.9734 15.7717 30.299 15.3255C30.6245 14.8793 30.5267 14.2538 30.0805 13.9283L25.2469 10.4017C25.4621 10.2761 25.7283 10.1273 26.0378 9.96696C26.9601 9.48899 28.2305 8.92669 29.6563 8.55625C32.523 7.81143 35.6533 7.90436 38.127 10.5106C39.4171 11.8698 39.8912 13.1465 39.9828 14.3747C40.0796 15.6707 39.7624 17.0765 39.1762 18.6785C38.8857 19.4721 38.5442 20.276 38.1785 21.1165C38.1145 21.2635 38.0496 21.4123 37.984 21.5624L37.9826 21.5655C37.6814 22.2552 37.3679 22.9729 37.083 23.6817C36.5434 25.0242 36.0358 26.4972 35.8425 28.0222C35.8145 28.029 35.7855 28.0358 35.7554 28.0427C35.0398 28.2074 34.0032 28.3531 32.7018 28.4688C30.1167 28.6987 26.7324 28.79 23.3289 28.759C19.9275 28.7281 16.5644 28.5757 14.0266 28.3297C12.8191 28.2126 11.8467 28.0788 11.1618 27.9385C11.0232 26.4294 10.6749 24.9507 10.2799 23.5641C10.0225 22.6603 9.73568 21.7645 9.46222 20.9117L9.44862 20.8694C9.17662 20.0212 8.91904 19.2181 8.69448 18.4343C7.7401 15.103 7.68162 13.0412 9.07151 11.5079C11.0349 9.342 13.0406 8.22681 15.056 8.03172C17.0617 7.83758 19.4534 8.51842 22.2716 10.712ZM36.4772 27.8165C36.4772 27.8165 36.4669 27.8239 36.4397 27.8366C36.4625 27.8225 36.4772 27.8165 36.4772 27.8165ZM10.4054 27.7364L10.4107 27.7388C10.4071 27.7372 10.4054 27.7364 10.4054 27.7364Z" fill="black"/>
<path d="M33.0953 32.92L16.2999 38.9664L15.9005 37.2358L33.4846 30.9055C33.4928 31.0833 33.477 31.2659 33.4346 31.4497L33.0953 32.92Z" fill="black"/>
<path d="M17.0131 40.8353L32.5603 35.2383L32.0886 37.2824L19.0397 41.98C18.2259 41.8858 17.4995 41.4638 17.0131 40.8353Z" fill="black"/>
<path d="M31.5536 39.6007L24.8888 42H28.6134C30.0104 42 31.2225 41.0358 31.5366 39.6746L31.5536 39.6007Z" fill="black"/>
</svg>

<svg
  xmlns="http://www.w3.org/2000/svg"
  width="24"
  height="24"
  viewBox="0 0 24 24"
  fill="none"
  stroke="currentColor"
  stroke-width="2"
  stroke-linecap="round"
  stroke-linejoin="round"
>
  <path
    fill-rule="evenodd"
    d="M7.59 10.165c4.362-4.812 9.73-5.841 15.91-1.031 0 0 9.716-6.702 16.078 0 4.12 4.341 2.14 8.877.233 13.242-1.036 2.373-2.05 4.696-2.05 6.91-.483.846-4.652 1.296-9.663 1.433l-12.65 4.554-.4-1.73 7.748-2.79a134 134 0 0 1-5.42-.174l-2.78 1.001-.03-.13a2 2 0 0 1 .042-1.06c-3.027-.256-5.17-.634-5.383-1.104 0-2.564-.855-5.232-1.685-7.82-1.368-4.263-2.665-8.307.05-11.301m14.682.547q.083.064.17.12l6.46 4.712a1 1 0 1 0 1.178-1.616l-4.833-3.526c.215-.126.481-.275.79-.435.923-.478 2.194-1.04 3.62-1.41 2.866-.746 5.996-.653 8.47 1.954 1.29 1.359 1.764 2.636 1.856 3.864.097 1.296-.22 2.701-.807 4.304-.29.793-.632 1.597-.998 2.438l-.194.445-.001.003c-.302.69-.615 1.408-.9 2.117-.54 1.342-1.047 2.815-1.24 4.34l-.088.02c-.715.165-1.752.311-3.053.427-2.585.23-5.97.321-9.373.29-3.402-.03-6.765-.183-9.302-.43-1.208-.116-2.18-.25-2.865-.39-.139-1.51-.487-2.988-.882-4.375-.257-.904-.544-1.8-.818-2.652l-.013-.043c-.272-.848-.53-1.65-.755-2.435-.954-3.331-1.012-5.393.378-6.926 1.963-2.166 3.969-3.281 5.984-3.476 2.006-.194 4.397.486 7.216 2.68m14.205 17.105q.002 0-.037.02zm-26.072-.08.006.002z"
    clip-rule="evenodd"
  />
  <path d="M33.095 32.92 16.3 38.966l-.4-1.73 17.585-6.33q.013.267-.05.544z" />
  <path d="m17.013 40.835 15.547-5.597-.471 2.044-13.05 4.698a3 3 0 0 1-2.026-1.145" />
  <path d="M31.554 39.6 24.889 42h3.724a3 3 0 0 0 2.924-2.325z" />
</svg>
